X:1
T:Title
%%score ( 1 2 ) { ( 3 4 ) | ( 5 6 ) }
L:1/8
Q:1/4=116
M:2/2
K:Bb
V:1 treble nm="Grand Piano"
V:2 treble 
V:3 bass nm="Grand Piano"
V:4 bass 
V:5 bass 
V:6 bass 
V:1
 [DF]4 [EF]4 | [DF]6 [D^F]2 | z2 .B6 | [EG]2 [DF]2 [DF]4 | [EG]4 [EA]4 | [DB]6 [DF]2 | %6
w: J.~H.~Tenney *||||||
 [EG]2 [DF]2 [CE]2 [B,D]2 |[M:9/8] [B,D]3- [B,D] [A,C]2 [EF]3 |[M:4/4] [DF]4 [EF]4 | [DF]6 [D^F]2 | %10
w: ||||
 z2 B4 z2 | [EG]2 [DF]2 [DF]4 | z4 G2 z2 | [DB]6 [DB]2 | [EB]4 c3 d | [Fc]8 | [Ec]6 [Fd]2 | %17
w: |||||||
 [Ec]3 [DB] [DB]4 | [^FA]6 [FB]2 | [^FA]3 G [EG]4 | [FB]4 B2 G2 | [DF]6 F2 | [EF]4 [EF]4 | [DF]8 |] %24
w: |||||||
V:2
 x8 | x8 | [EG]2 F2 G2 [EG]2 | x8 | x8 | x8 | x8 |[M:9/8] x9 |[M:4/4] x8 | x8 | [EG]2 F2 G2 [EG]2 | %11
 x8 | [EA]4 E2- [EA]2 | x8 | z4 =E4 | x8 | x8 | x8 | x8 | x8 | z4 E4 | x8 | x8 | x8 |] %24
V:3
 z4 C4 | B,6 B,2 | B,4 B,4 | B,4 B,4 | B,4 C4 | F,6 B,2 | B,4 G,4 |[M:9/8] z9 |[M:4/4] z4 C4 | %9
 B,6 B,2 | B,4 B,4 | B,4 B,4 | C4 C4 | B,6 _A,2 | G,4 G,2 B,2 | A,8 | A,6 A,2 | A,3 B, B,4 | %18
 C6 D2 | C3 B, B,4 | F,2 _A,2 G,2 B,2 | B,6 B,2 | B,4 A,4 | B,8 |] %24
V:4
 B,4 z2 F,,2 | x8 | z2 D,2 z2 G,2 | x8 | x8 | x8 | x8 |[M:9/8] x9 |[M:4/4] B,4 z2 F,,2 | x8 | %10
 z2 D,2 z2 G,2 | x8 | x8 | x8 | x8 | x8 | x8 | x8 | x8 | x8 | x8 | x8 | x8 | x8 |] %24
V:5
 B,,4 .A,,4 | B,,6 B,,2 | .E,4 .E,4 | z4 B,,4 | E,4 C,4 | B,,6 B,,2 | B,,4 C,2 D,E, | %7
[M:9/8] z3 z3 A,3 |[M:4/4] B,,4 A,,2 z2 | B,,6 B,,2 | E,2 z2 E,2 z2 | z4 B,,4 | F,4 F,4 | G,6 F,2 | %14
 E,4 C,4 | F,8 | F,6 F,2 | ^F,3 G, G,4 | D,6 D,2 | E,4 E,4 | D,4 E,4 | B,,6 D,2 | C,4 F,,4 | %23
 B,,8 |] %24
V:6
 x8 | x8 | x8 | x8 | x8 | x8 | x8 |[M:9/8] F,6- F,2- F,/ z/ |[M:4/4] x8 | x8 | x8 | x8 | x8 | x8 | %14
 x8 | x8 | x8 | x8 | x8 | x8 | x8 | x8 | x8 | x8 |] %24

